X: 22500
T: Lady Dolly Primrose's Minuet
R: waltz
M: 3/4
K: Gmajor
B4 (3ABc|B2 A2 G2|d4 e2|d2 c2 B2|ga b2 a2|g2 f2 e2|dgfedc|B2 A4:|
d4 e2|A2 B2 c2|E2 A2 G2|F4 ED|GBAc B2|egfa g2|(3cBA A3 G|G6:|

